poi/svg/1806.svg

<?xml version="1.0" encoding="UTF-8" standalone="no"?>
<svg
   xmlns:dc="http://purl.org/dc/elements/1.1/"
   xmlns:cc="http://creativecommons.org/ns#"
   xmlns:rdf="http://www.w3.org/1999/02/22-rdf-syntax-ns#"
   xmlns:svg="http://www.w3.org/2000/svg"
   xmlns="http://www.w3.org/2000/svg"
   xmlns:sodipodi="http://sodipodi.sourceforge.net/DTD/sodipodi-0.dtd"
   xmlns:inkscape="http://www.inkscape.org/namespaces/inkscape"
   inkscape:version="1.0 (4035a4fb49, 2020-05-01)"
   sodipodi:docname="1806.svg"
   id="svg20"
   version="1.2"
   viewBox="0 0 42.519639 42.519639"
   height="14.999999mm"
   width="14.999999mm">
  <metadata
     id="metadata24">
    <rdf:RDF>
      <cc:Work
         rdf:about="">
        <dc:format>image/svg+xml</dc:format>
        <dc:type
           rdf:resource="http://purl.org/dc/dcmitype/StillImage" />
        <dc:title>Qt SVG Document</dc:title>
      </cc:Work>
    </rdf:RDF>
  </metadata>
  <sodipodi:namedview
     inkscape:current-layer="svg20"
     inkscape:window-maximized="0"
     inkscape:window-y="0"
     inkscape:window-x="0"
     inkscape:cy="28.346482"
     inkscape:cx="28.346482"
     inkscape:zoom="5.8410537"
     showgrid="false"
     id="namedview22"
     inkscape:window-height="480"
     inkscape:window-width="1034"
     inkscape:pageshadow="2"
     inkscape:pageopacity="0"
     guidetolerance="10"
     gridtolerance="10"
     objecttolerance="10"
     borderopacity="1"
     bordercolor="#666666"
     pagecolor="#ffffff" />
  <title
     id="title2">Qt SVG Document</title>
  <desc
     id="desc4">Generated with Qt</desc>
  <defs
     id="defs6" />
  <g
     transform="translate(5.25984,5.25984)"
     id="g18"
     stroke-linejoin="bevel"
     stroke-linecap="square"
     fill-rule="evenodd"
     stroke-width="1"
     stroke="#000000"
     fill="none">
    <g
       id="g10"
       font-style="normal"
       font-weight="400"
       font-size="7.8px"
       font-family="'MS Shell Dlg 2'"
       stroke="none"
       fill-opacity="1"
       fill="#a61215">
      <path
         id="path8"
         d="M 37.2598,16 C 37.2598,27.7415 27.7415,37.2598 16,37.2598 4.25851,37.2598 -5.25984,27.7415 -5.25984,16 -5.25984,4.25851 4.25851,-5.25984 16,-5.25984 27.7415,-5.25984 37.2598,4.25851 37.2598,16"
         fill-rule="evenodd"
         vector-effect="non-scaling-stroke" />
    </g>
    <g
       id="g14"
       font-style="normal"
       font-weight="400"
       font-size="7.8px"
       font-family="'MS Shell Dlg 2'"
       transform="translate(16,13.1654)"
       stroke="none"
       fill-opacity="0.94902"
       fill="#ffffff">
      <path
         id="path12"
         d="M 9.85938,2.59814 H 2.06982 V 18.0303 H -1.83545 V 2.59814 H -9.625 v -3.90527 h 7.78955 v -7.78955 h 3.90527 v 7.78955 H 9.85938 V 2.59814 M -4.58594,11.2065 c 0.50391,0.336 0.85734,0.6614 1.06031,0.9764 0.20296,0.3149 0.36043,0.5634 0.47241,0.7453 0.20996,0.4479 0.31494,0.9239 0.31494,1.4278 0,0.5039 -0.08748,0.9938 -0.26245,1.4697 -0.17497,0.4759 -0.44792,0.8923 -0.81885,1.2493 -0.37093,0.3569 -0.82935,0.6193 -1.37524,0.7873 -0.92383,0.238 -1.83016,0.168 -2.719,-0.21 -0.88883,-0.3779 -1.52921,-1.0498 -1.92114,-2.0156 -0.23794,-0.4339 -0.40594,-0.8153 -0.50394,-1.1443 -0.0979,-0.3289 -0.2099,-0.6159 -0.3359,-0.8608 -0.126,-0.245 -0.2974,-0.4549 -0.5144,-0.6299 -0.217,-0.175 -0.5424,-0.3184 -0.9763,-0.4304 -0.14,-0.056 -0.0315,-0.119 0.3254,-0.189 0.3569,-0.07 0.7944,-0.007 1.3123,0.189 0.2799,0.084 0.5074,0.2134 0.68234,0.3884 0.17497,0.175 0.33594,0.343 0.48291,0.5039 0.14697,0.161 0.29045,0.2905 0.43042,0.3885 0.13998,0.0979 0.30794,0.1189 0.50391,0.0629 0.26595,-0.056 0.39892,-0.2274 0.39892,-0.5144 0,-0.2869 -0.23095,-0.5634 -0.69287,-0.8293 -0.74186,-0.4199 -1.23527,-0.8818 -1.48023,-1.3858 -0.2449,-0.5039 -0.3534,-1.0008 -0.3254,-1.49068 0.028,-0.4899 0.1434,-0.94132 0.3464,-1.35424 0.20297,-0.41293 0.38843,-0.75236 0.5564,-1.01831 0.11198,-0.19597 0.13298,-0.18547 0.06299,0.03149 -0.06999,0.21696 -0.12598,0.5179 -0.16797,0.90283 -0.04199,0.38493 0,0.79435 0.12598,1.22827 0.12597,0.43392 0.44791,0.76284 0.96582,0.98684 0.5179,0.2239 0.92732,0.4514 1.22827,0.6824 0.30094,0.2309 0.5529,0.4269 0.75586,0.5878 0.20296,0.161 0.36043,0.2835 0.47241,0.3675 0.11198,0.084 0.23796,0.084 0.37793,0 0.20996,-0.14 0.19246,-0.364 -0.05249,-0.6719 -0.24496,-0.3079 -0.42342,-0.6579 -0.5354,-1.0498 -0.12598,-0.3219 -0.18897,-0.5879 -0.18897,-0.79786 0,-0.20996 0.06299,-0.21696 0.18897,-0.02099 0.19596,0.40592 0.44442,0.69985 0.74536,0.88185 0.30094,0.1819 0.65438,0.4339 1.0603,0.7558 m 15.34814,1.3648 c 0.5179,-0.196 0.9553,-0.259 1.3123,-0.189 0.3569,0.07 0.4654,0.133 0.3254,0.189 -0.4339,0.112 -0.7594,0.2554 -0.9763,0.4304 -0.217,0.175 -0.3814,0.3849 -0.4934,0.6299 -0.112,0.2449 -0.2205,0.5319 -0.3255,0.8608 -0.1049,0.329 -0.2554,0.7104 -0.4514,1.1443 -0.46189,0.9658 -1.13727,1.6377 -2.0261,2.0156 -0.88884,0.378 -1.78817,0.448 -2.698,0.21 C 4.85531,17.6943 4.38989,17.4319 4.03296,17.075 3.67603,16.718 3.41007,16.3016 3.23511,15.8257 3.06014,15.3498 2.97266,14.8599 2.97266,14.356 c 0,-0.5039 0.09798,-0.9799 0.29394,-1.4278 0.12598,-0.1819 0.28695,-0.4304 0.48291,-0.7453 0.19597,-0.315 0.5529,-0.6404 1.0708,-0.9764 0.40593,-0.3219 0.75236,-0.5739 1.03931,-0.7558 0.28695,-0.182 0.5424,-0.47593 0.76636,-0.88185 0.11198,-0.19597 0.16797,-0.18897 0.16797,0.02099 0,0.20996 -0.028,0.47596 -0.08399,0.79786 -0.08398,0.196 -0.18197,0.3814 -0.29394,0.5564 -0.11198,0.175 -0.22046,0.3394 -0.32544,0.4934 -0.10498,0.154 -0.17147,0.2834 -0.19947,0.3884 -0.02799,0.105 0.014,0.1995 0.12598,0.2835 0.12598,0.084 0.25195,0.084 0.37793,0 C 6.521,12.0254 6.67847,11.9029 6.86743,11.7419 7.0564,11.581 7.30835,11.385 7.62329,11.1541 7.93823,10.9231 8.34066,10.6956 8.83057,10.4717 9.37646,10.2477 9.7124,9.91878 9.83838,9.48486 9.96436,9.05094 10.0063,8.64152 9.96436,8.25659 9.92236,7.87166 9.85938,7.57072 9.77539,7.35376 9.69141,7.1368 9.7194,7.1263 9.85938,7.32227 c 0.16792,0.26595 0.35342,0.60538 0.55642,1.01831 0.2029,0.41292 0.3184,0.86434 0.3464,1.35424 0.028,0.48988 -0.0875,0.98678 -0.3464,1.49068 -0.259,0.504 -0.74539,0.9659 -1.45926,1.3858 -0.46191,0.2659 -0.69287,0.5424 -0.69287,0.8293 0,0.287 0.12598,0.4584 0.37793,0.5144 0.20996,0.056 0.38493,0.035 0.5249,-0.0629 0.13998,-0.098 0.28345,-0.2275 0.43042,-0.3885 0.14698,-0.1609 0.30445,-0.3289 0.47238,-0.5039 0.168,-0.175 0.399,-0.3044 0.6929,-0.3884"
         fill-rule="evenodd"
         vector-effect="none" />
    </g>
    <g
       id="g16"
       font-style="normal"
       font-weight="400"
       font-size="7.8px"
       font-family="'MS Shell Dlg 2'"
       stroke="none"
       fill-opacity="1"
       fill="#a61215" />
  </g>
</svg>

<?xml version="1.0" encoding="UTF-8" standalone="no"?>
<svg width="11.2889mm" height="11.2889mm"
 viewBox="0 0 32 32"
 xmlns="http://www.w3.org/2000/svg" xmlns:xlink="http://www.w3.org/1999/xlink"  version="1.2" baseProfile="tiny">
<title>Qt SVG Document</title>
<desc>Generated with Qt</desc>
<defs>
</defs>
<g fill="none" stroke="black" stroke-width="1" fill-rule="evenodd" stroke-linecap="square" stroke-linejoin="bevel" >

<g fill="#a61215" fill-opacity="1" stroke="none" transform="matrix(1,0,0,1,0,0)"
font-family="MS Shell Dlg 2" font-size="7.8" font-weight="400" font-style="normal" 
>
<path vector-effect="non-scaling-stroke" fill-rule="evenodd" d="M37.2598,16 C37.2598,27.7415 27.7415,37.2598 16,37.2598 C4.25851,37.2598 -5.25984,27.7415 -5.25984,16 C-5.25984,4.25851 4.25851,-5.25984 16,-5.25984 C27.7415,-5.25984 37.2598,4.25851 37.2598,16 "/>
</g>

<g fill="#ffffff" fill-opacity="0.94902" stroke="none" transform="matrix(1,0,0,1,16,13.1654)"
font-family="MS Shell Dlg 2" font-size="7.8" font-weight="400" font-style="normal" 
>
<path vector-effect="none" fill-rule="evenodd" d="M9.85938,2.59814 L2.06982,2.59814 L2.06982,18.0303 L-1.83545,18.0303 L-1.83545,2.59814 L-9.625,2.59814 L-9.625,-1.30713 L-1.83545,-1.30713 L-1.83545,-9.09668 L2.06982,-9.09668 L2.06982,-1.30713 L9.85938,-1.30713 L9.85938,2.59814 M-4.58594,11.2065 C-4.08203,11.5425 -3.7286,11.8679 -3.52563,12.1829 C-3.32267,12.4978 -3.1652,12.7463 -3.05322,12.9282 C-2.84326,13.3761 -2.73828,13.8521 -2.73828,14.356 C-2.73828,14.8599 -2.82576,15.3498 -3.00073,15.8257 C-3.1757,16.3016 -3.44865,16.718 -3.81958,17.075 C-4.19051,17.4319 -4.64893,17.6943 -5.19482,17.8623 C-6.11865,18.1003 -7.02498,18.0303 -7.91382,17.6523 C-8.80265,17.2744 -9.44303,16.6025 -9.83496,15.6367 C-10.0729,15.2028 -10.2409,14.8214 -10.3389,14.4924 C-10.4368,14.1635 -10.5488,13.8765 -10.6748,13.6316 C-10.8008,13.3866 -10.9722,13.1767 -11.1892,13.0017 C-11.4062,12.8267 -11.7316,12.6833 -12.1655,12.5713 C-12.3055,12.5153 -12.197,12.4523 -11.8401,12.3823 C-11.4832,12.3123 -11.0457,12.3753 -10.5278,12.5713 C-10.2479,12.6553 -10.0204,12.7847 -9.84546,12.9597 C-9.67049,13.1347 -9.50952,13.3027 -9.36255,13.4636 C-9.21558,13.6246 -9.0721,13.7541 -8.93213,13.8521 C-8.79215,13.95 -8.62419,13.971 -8.42822,13.915 C-8.16227,13.859 -8.0293,13.6876 -8.0293,13.4006 C-8.0293,13.1137 -8.26025,12.8372 -8.72217,12.5713 C-9.46403,12.1514 -9.95744,11.6895 -10.2024,11.1855 C-10.4473,10.6816 -10.5558,10.1847 -10.5278,9.69482 C-10.4998,9.20492 -10.3844,8.7535 -10.1814,8.34058 C-9.97843,7.92765 -9.79297,7.58822 -9.625,7.32227 C-9.51302,7.1263 -9.49202,7.1368 -9.56201,7.35376 C-9.632,7.57072 -9.68799,7.87166 -9.72998,8.25659 C-9.77197,8.64152 -9.72998,9.05094 -9.604,9.48486 C-9.47803,9.91878 -9.15609,10.2477 -8.63818,10.4717 C-8.12028,10.6956 -7.71086,10.9231 -7.40991,11.1541 C-7.10897,11.385 -6.85701,11.581 -6.65405,11.7419 C-6.45109,11.9029 -6.29362,12.0254 -6.18164,12.1094 C-6.06966,12.1934 -5.94368,12.1934 -5.80371,12.1094 C-5.59375,11.9694 -5.61125,11.7454 -5.8562,11.4375 C-6.10116,11.1296 -6.27962,10.7796 -6.3916,10.3877 C-6.51758,10.0658 -6.58057,9.7998 -6.58057,9.58984 C-6.58057,9.37988 -6.51758,9.37288 -6.3916,9.56885 C-6.19564,9.97477 -5.94718,10.2687 -5.64624,10.4507 C-5.3453,10.6326 -4.99186,10.8846 -4.58594,11.2065 M10.7622,12.5713 C11.2801,12.3753 11.7175,12.3123 12.0745,12.3823 C12.4314,12.4523 12.5399,12.5153 12.3999,12.5713 C11.966,12.6833 11.6405,12.8267 11.4236,13.0017 C11.2066,13.1767 11.0422,13.3866 10.9302,13.6316 C10.8182,13.8765 10.7097,14.1635 10.6047,14.4924 C10.4998,14.8214 10.3493,15.2028 10.1533,15.6367 C9.69141,16.6025 9.01603,17.2744 8.1272,17.6523 C7.23836,18.0303 6.33903,18.1003 5.4292,17.8623 C4.85531,17.6943 4.38989,17.4319 4.03296,17.075 C3.67603,16.718 3.41007,16.3016 3.23511,15.8257 C3.06014,15.3498 2.97266,14.8599 2.97266,14.356 C2.97266,13.8521 3.07064,13.3761 3.2666,12.9282 C3.39258,12.7463 3.55355,12.4978 3.74951,12.1829 C3.94548,11.8679 4.30241,11.5425 4.82031,11.2065 C5.22624,10.8846 5.57267,10.6326 5.85962,10.4507 C6.14657,10.2687 6.40202,9.97477 6.62598,9.56885 C6.73796,9.37288 6.79395,9.37988 6.79395,9.58984 C6.79395,9.7998 6.76595,10.0658 6.70996,10.3877 C6.62598,10.5837 6.52799,10.7691 6.41602,10.9441 C6.30404,11.1191 6.19556,11.2835 6.09058,11.4375 C5.9856,11.5915 5.91911,11.7209 5.89111,11.8259 C5.86312,11.9309 5.90511,12.0254 6.01709,12.1094 C6.14307,12.1934 6.26904,12.1934 6.39502,12.1094 C6.521,12.0254 6.67847,11.9029 6.86743,11.7419 C7.0564,11.581 7.30835,11.385 7.62329,11.1541 C7.93823,10.9231 8.34066,10.6956 8.83057,10.4717 C9.37646,10.2477 9.7124,9.91878 9.83838,9.48486 C9.96436,9.05094 10.0063,8.64152 9.96436,8.25659 C9.92236,7.87166 9.85938,7.57072 9.77539,7.35376 C9.69141,7.1368 9.7194,7.1263 9.85938,7.32227 C10.0273,7.58822 10.2128,7.92765 10.4158,8.34058 C10.6187,8.7535 10.7342,9.20492 10.7622,9.69482 C10.7902,10.1847 10.6747,10.6816 10.4158,11.1855 C10.1568,11.6895 9.67041,12.1514 8.95654,12.5713 C8.49463,12.8372 8.26367,13.1137 8.26367,13.4006 C8.26367,13.6876 8.38965,13.859 8.6416,13.915 C8.85156,13.971 9.02653,13.95 9.1665,13.8521 C9.30648,13.7541 9.44995,13.6246 9.59692,13.4636 C9.7439,13.3027 9.90137,13.1347 10.0693,12.9597 C10.2373,12.7847 10.4683,12.6553 10.7622,12.5713 "/>
</g>

<g fill="#a61215" fill-opacity="1" stroke="none" transform="matrix(1,0,0,1,0,0)"
font-family="MS Shell Dlg 2" font-size="7.8" font-weight="400" font-style="normal" 
>
</g>
</g>
</svg>
